16x16/panel/indicator-fortune.svg

<svg xmlns="http://www.w3.org/2000/svg" width="16" height="16" version="1.1">
 <defs>
  <style id="current-color-scheme" type="text/css">
   .ColorScheme-Text { color:#323a41; } .ColorScheme-Highlight { color:#4285f4; } .ColorScheme-NeutralText { color:#ff9800; } .ColorScheme-PositiveText { color:#4caf50; } .ColorScheme-NegativeText { color:#f44336; }
  </style>
 </defs>
 <path style="fill:currentColor" class="ColorScheme-Text" d="M 5.786,1.2033 C 2.8421,2.0548 0.76416,4.3456 1.0215,7.5315 1.3184,11.207 6.6452,14.923 8.7315,15 9.6407,14.785 9.1143,11.875 8.5792,9.6786 8.4288,9.0851 8.2784,8.4937 8.1055,7.8992 8.0499,7.707 7.9825,7.4684 7.9649,7.4103 7.6797,6.4542 7.335,5.3625 6.7707,3.6267 6.6641,3.313 6.8887,2.9845 7.2168,2.974 7.4366,2.9666 7.6348,3.1085 7.6993,3.3206 8.6778,6.3291 9.0655,7.6518 9.4639,9.2044 11.035,11.173 13.319,13.866 14.057,13.699 15.195,13.439 15.608,5.8633 13.531,3.527 11.455,1.1904 8.7061,0.64126 5.7856,1.2035 Z"/>
</svg>

<svg xmlns="http://www.w3.org/2000/svg" width="16" height="16"><defs><style id="current-color-scheme" type="text/css"></style></defs><path d="M5.786 1.203C2.842 2.055.764 4.346 1.022 7.532c.296 3.675 5.623 7.391 7.71 7.468.909-.215.382-3.125-.153-5.321-.15-.594-.3-1.185-.474-1.78l-.14-.489c-.285-.956-.63-2.048-1.194-3.783A.488.488 0 0 1 7.7 3.32c.978 3.008 1.366 4.33 1.764 5.883 1.571 1.969 3.855 4.662 4.593 4.495 1.138-.26 1.551-7.836-.526-10.172C11.455 1.19 8.706.641 5.786 1.203z" fill="currentColor" color="#d3dae3"/></svg>
